X: 120
T: No_55_A_Painted_Snake_Comes_Out.krn
N: Derived from No_55_A_Painted_Snake_Comes_Out.krn
%%abc-version 2.0
%%abcx-abcm2ps-target-version 5.9.1 (29 Sep 2008)
%%abc-creator hum2abc beta
%%abcx-conversion-date 2019/03/15 08:37:56
%%humdrum-veritas 1160534663
%%humdrum-veritas-data 3562845165
%%linebreak <none>
%%barnumbers 0
L: 1/8
M: 2/4
K: Bb clef=bass
D,D, [I:setbarnb 1]| 
G,2G,3/A,//A,// | 
B,2A,3/G,/ ||  
[M:3/4]A,2G,3/A,/ (3A,G,A, ||  
[M:2/4](A,3G,/) z/ | 
B,2A,3/B,/ | 
A,3/G,/G,2 ||  
[M:3/4]A,/G,3/ G,3/G,/ G,3/G,//G,// ||  
[M:2/4]G,2z2 | 
A,/G,3/ G,G, | 
G,2G,2 | 
E,2E,/ z/ G, | 
G,G,G,2- | 
G,4 |]  



